X: 5354
T: Buck In The Woods, The
R: jig
M: 6/8
K: Gmajor
|:A|BGG dGG|BGG FGA|BGG dGG|cAF G2 A|
[1 BGG dGG|BGG FGA|d2 e f2d|cAF G2:|
[2 B3 BAG|ABA ABc|d2e f2 d|cAF G2||
|:D|GBd ded|ded cAF|GBd ded|cAF G2 D|
[1 GBd ded|ded cAF|d2 e f2d|cAF G2:|
[2 B3 BAG|ABA ABc|d2e f2 d|cAF G2||

